X:23
T:Madame Catalani’s Waltz. Car.23
M:3/8
L:1/8
Q:3/8=30
S:CarlisleMS,Anon.c1812.AGG’s transcription
O:England
A:Carlisle
Z:vmp.Chris Partington
K:G
D|G2B|d2g|GGB|AFD|!
G2B|d2g|”_last bar misssing from MS”d/e/d/c/B/A/|G2:|!
|:A|d2f| a2f|a/^g/=g/f/g/e/|fdA|!
d2f|a2f|a/^g/=g/f/g/e/|d2:|
